X:1
T:James Gibb editions
T:Jesus, we love to meet - Barnby
%%score [ ( 1 2 ) ( 3 4 ) ]
L:1/8
Q:1/4=90
M:4/4
K:D
V:1 treble nm="Midi_74"
V:2 treble 
V:3 bass nm="Midi_74"
V:4 bass 
V:1
"^Holy day (12 12. 12 12)""^Elizabeth Parson\n(1812-73)""^Jesus, we love to meet""^Joseph Barnby\n(1838-96)" D4 D2 E2 | %1
 F2 A2 A2 G2 | F2 F2 E2 D2 | E8 || D4 D2 E2 | F2 A2 A2 F2 | F2 F2 ^G2 ^E2 | F8 ||[M:4/4] G4 G2 F2 | %9
 F2 E2 A4 | A4 A2 G2 | G2 F2 B4 || c4 c2 F2 | d2"^1" B2 A2 F2 | D2 D2 E3 D | D8 || G4 F4 |] %17
V:2
 A,4 A,2 C2 | D2 D2 D2 E2 | D2 D2 B,2 B,2 | C8 || A,4 B,2- C2 | D2 D2 D2 A,2 | C2 C2 C2 C2 | C8 || %8
[M:4/4] C4 C2 D2 | C2 C2 D4 | ^D4 D2 E2 | ^D2 D2 E4 || G4 F2 E2 | D2 D2 E2 D2 | B,2 D2 C3 D | D8 || %16
 D4 D4 |] %17
V:3
 F,4 F,2 A,2 | A,2 A,2 A,2 A,2 | A,2 A,2 G,2 F,2 | A,8 || F,4 F,2 A,2 | A,2 A,2 A,2 A,2 | %6
 A,2 A,2 B,2 ^G,2 | A,8 || %8
[M:4/4]"^1 Jesus, we love to meet on this, your holy day;\nWe worship round your seat on this, your holy day.\nO tender heavenly friend, to you our prayers ascend;\nOver our spirits bend on this, your holy day.\n\n2 We dare not trifle now on this, your holy day;\nIn silent awe we bow on this, your holy day.\nCheck every wandering thought, and let us all be taught\nto serve you as we ought on this, your holy day.\n\n3 We listen to your word on this, your holy day;\nBless all that we have heard on this, your holy day.\nGo with us when we part, and to each longing heart\nYour saving grace impart on this, your holy day." A,4 A,2 A,2 | %9
 A,2 A,2 A,4 | F,4 F,2 G,2 | A,2 B,2 B,4 || B,4 ^A,2 C2 | F,2 G,2 E,2 A,2 | G,2 F,2 A,3 F, | F,8 || %16
 B,4 A,4 |] %17
V:4
 D,4 D,2 A,,2 | D,2 F,2 F,2 C,2 | D,2 D,2 G,,2 B,,2 | A,,8 || D,4 B,,2 A,,2 | D,2 F,2 F,2 D,2 | %6
 C,2 C,2 C,2 C,2 | F,8 ||[M:4/4] E,4 E,2 F,2 | G,2 G,2 F,4 | B,,4 B,,2 E,2 | A,2 A,2 G,4- || %12
 E,4 F,2 ^A,,2 | B,,2 B,,2 C,2 D,2- | G,,2 B,,2 A,,3 D, | D,8 || G,,4 D,4 |] %17

